X:31
T:31 Last Valentine's Day
C:Welch MS
I:abc2nwc
M:1/2
L:1/16
K:G
dc|B2e2A2d2|G4A2B2|c2B2A2G2|AGFE D2dc|B2e2A2d2|G6AB|e2c2 BAGF|G2G2G2:|
d2|d2g2g2g2|g2f2f2f2|e2f2g2e2|d4B4|c4ecec|B4dBdB|e2c2 BAGF|G2G2G2:|

